priv/static/svgs/icons_new/sport-chess.svg

<svg width="32" height="32" viewBox="0 0 32 32" fill="none" xmlns="http://www.w3.org/2000/svg">
<path d="M10.037 10.718L8.76667 10.1232M11.0963 8.74385L9.96667 7.91552M9.43333 12.8454L8 12.4221M10.6222 8.21474C11.7074 6.72228 13.2444 6.66024 13.2444 6.66024C13.2444 6.66024 13.9185 4.85031 16.3259 4.5V6.72592L18.463 7.08718L18.9519 7.94106C18.9519 7.94106 22.7 10.6779 23.5148 11.7507C23.5148 11.7507 24.1926 14.2977 22.2222 13.962C22.2222 13.962 16.2037 11.9842 16.2889 13.7941C16.2889 13.7941 21.5444 17.0053 21.3407 22.0301H12.1852C12.1852 22.0301 12.2852 19.5086 10.6444 18.4868C8.55185 17.1805 8.2963 15.5785 8.63704 12.798M22.137 24.4348C23.2259 25.0369 24 27.5 24 27.5H9.38889C9.38889 27.5 10.163 25.0369 11.2519 24.4348H22.1407H22.137Z" stroke="black" stroke-miterlimit="10" stroke-linecap="round"/>
</svg>

<svg width="32" height="32" viewBox="0 0 32 32" fill="none" xmlns="http://www.w3.org/2000/svg">
  <symbol id="item" viewBox="0 0 32 32" stroke-width="1" fill="none">
    <path d="m10.037 10.718-1.27-.595m2.33-1.38-1.13-.827m-.534 4.93L8 12.421m2.622-4.207c1.085-1.493 2.622-1.555 2.622-1.555s.675-1.81 3.082-2.16v2.226l2.137.361.489.854s3.748 2.737 4.563 3.81c0 0 .678 2.547-1.293 2.211 0 0-6.018-1.978-5.933-.168 0 0 5.255 3.211 5.052 8.236h-9.156s.1-2.521-1.54-3.543c-2.093-1.306-2.349-2.908-2.008-5.689m13.5 11.637C23.226 25.037 24 27.5 24 27.5H9.389s.774-2.463 1.863-3.065H22.14h-.004Z" stroke="currentColor" stroke-miterlimit="10" stroke-linecap="round"/>
  </symbol>
</svg>
